img/icon-user-yellow.svg

<svg width="13" height="14" fill="none" xmlns="http://www.w3.org/2000/svg"><path d="M6.49999 2.3335c1.19708 0 2.16667 1.04416 2.16667 2.33333 0 1.28917-.96959 2.33333-2.16667 2.33333S4.33332 5.956 4.33332 4.66683c0-1.28917.96959-2.33333 2.16667-2.33333zm0 9.3333s4.33331 0 4.33331-1.1666c0-1.40004-2.11248-2.9167-4.33331-2.9167s-4.33333 1.51666-4.33333 2.9167c0 1.1666 4.33333 1.1666 4.33333 1.1666z" fill="#FFC600"/></svg>

<svg width="13" height="14" viewBox="0 0 13 14" fill="none" xmlns="http://www.w3.org/2000/svg">
<path d="M6.49999 2.3335C7.69707 2.3335 8.66666 3.37766 8.66666 4.66683C8.66666 5.956 7.69707 7.00016 6.49999 7.00016C5.30291 7.00016 4.33332 5.956 4.33332 4.66683C4.33332 3.37766 5.30291 2.3335 6.49999 2.3335ZM6.49999 11.6668C6.49999 11.6668 10.8333 11.6668 10.8333 10.5002C10.8333 9.10016 8.72082 7.5835 6.49999 7.5835C4.27916 7.5835 2.16666 9.10016 2.16666 10.5002C2.16666 11.6668 6.49999 11.6668 6.49999 11.6668Z" fill="#FFC600"/>
</svg>
